resources/icons/20px/heart.svg

<?xml version="1.0" encoding="UTF-8"?>
<svg width="20px" height="20px" viewBox="0 0 20 20" version="1.1" xmlns="http://www.w3.org/2000/svg" xmlns:xlink="http://www.w3.org/1999/xlink">
    <!-- Generator: Sketch 49.1 (51147) - http://www.bohemiancoding.com/sketch -->
    <title>Artboard</title>
    <desc>Created with Sketch.</desc>
    <defs></defs>
    <g id="Artboard" stroke="none" stroke-width="1" fill="none" fill-rule="evenodd">
        <path d="M20,6.25434828 C20,3.35250888 17.6495,1 14.75,1 C12.647,1 10.838125,2.24046525 10,4.02743007 C9.161875,2.24033657 7.353,1 5.25,1 C2.3505,1 0,3.3523802 0,6.25434828 C0,6.33889036 0.00875,6.42111622 0.012625,6.50462887 L0.0045,6.50462887 C0.006375,6.56420723 0.018375,6.62751728 0.021875,6.68773904 C0.026875,6.74911891 0.032125,6.81024142 0.03925,6.87110657 C0.12625,7.89989491 0.4405,9.01090912 1.069,10.180987 C2.5915,13.0223472 5.290625,15.1627932 9.99975,19 C14.70875,15.1627932 17.407875,13.0208031 18.930375,10.180987 C19.5565,9.01541288 19.870375,7.90838772 19.959,6.88307371 C19.967375,6.81320103 19.973375,6.74294232 19.979,6.67229756 C19.982,6.61722296 19.99325,6.55906007 19.994875,6.50450019 L19.9875,6.50450019 C19.99125,6.42098754 20,6.33876168 20,6.25434828 Z" id="Shape" fill="#000000" fill-rule="nonzero"></path>
    </g>
</svg>

<?xml version="1.0" encoding="utf-8"?>
<!-- Generator: Adobe Illustrator 18.0.0, SVG Export Plug-In . SVG Version: 6.00 Build 0)  -->
<svg version="1.1" id="Layer_1" xmlns="http://www.w3.org/2000/svg" xmlns:xlink="http://www.w3.org/1999/xlink" x="0px" y="0px"
	 viewBox="0 0 20 20" enable-background="new 0 0 20 20" xml:space="preserve">
<g id="heart_4_">
	<g>
		<path fill-rule="evenodd" clip-rule="evenodd" d="M20,6.25C20,3.3505,17.6495,1,14.75,1C12.647,1,10.8381,2.2394,10,4.025
			C9.1619,2.2394,7.353,1,5.25,1C2.3505,1,0,3.3505,0,6.25C0,6.3344,0.0087,6.4166,0.0126,6.5H0.0045
			c0.0018,0.0596,0.0139,0.1229,0.0173,0.183c0.0051,0.0614,0.0103,0.1225,0.0174,0.1832c0.087,1.0278,0.4012,2.1379,1.0297,3.3071
			c1.5225,2.839,4.2216,4.9777,8.9307,8.8116c4.709-3.8339,7.4082-5.9741,8.9307-8.8116c0.6261-1.1646,0.9401-2.2706,1.0286-3.2952
			c0.0084-0.0698,0.0144-0.14,0.02-0.2105C19.982,6.6125,19.9931,6.5545,19.9948,6.5h-0.0074C19.9913,6.4166,20,6.3344,20,6.25z"/>
	</g>
</g>
</svg>
